TCanvas/df105.svg

<svg xmlns="http://www.w3.org/2000/svg" viewBox="0 0 1200 800" preserveAspectRatio="none" width="1200" height="800">
 <path d="M0,0H1200V800H0Z" style="fill: white;"></path>
 <g>
  <g transform="translate(192,40)">
   <path d="M0,0H948V632H0Z" style="fill: white; stroke: black; stroke-width: 1;"></path>
   <svg x="0" y="0" overflow="hidden" width="948" height="632" viewBox="0 0 948 632">
    <g>
     <path d="M0,637h40v-267h39v-48h40v-19h39v-6h40v-6h39v7h40v5h39v-5h40v3h39v4h40v5h39v-3h40v5h39v5h40v2h39v8h40v8h39v6h40v1h39v4h40v9h39v5h79L948,635H0Z" style="stroke-linejoin: miter; stroke: black; stroke-width: 1; fill: #de5a6a;"></path>
    </g>
    <g>
     <path d="M0,637h40v-114h39v-58h40v-18h39v-13h40v-6h39v-7h40v-5h39v-3h79v2h40v-3h39v-3h40v2h39v-1h79v5h40v1h39v4h40v6h39v3h40v9h39v1h40v-3h39L948,635H0Z" style="stroke-linejoin: miter; stroke: black; stroke-width: 1; fill: #f8ce68;"></path>
    </g>
    <g>
     <path d="M0,637h40v-66h39v-46h40v-20h39v-18h40v-7h39v-10h40v-8h39v-3h40v-2h39v-2h40v-2h79v3h39v-1h40v-5h39v5h40v-1h39v1h40v3h39v3h40v1h79v2h39L948,635H0Z" style="stroke-linejoin: miter; stroke: black; stroke-width: 1; fill: #9b98cc;"></path>
    </g>
    <g>
     <path d="M0,637h40v-29h39v-49h40v-3h39v-16h40v-12h39v-10h40v-9h39v1h40v5h39v-6h40v-4h39v3h40v5h39v1h40v-1h39v2h40v-4h39v1h40v6h39v3h40v-3h39v3h79L948,635H0Z" style="stroke-linejoin: miter; stroke: black; stroke-width: 1; fill: #c38a91;"></path>
    </g>
    <g>
     <path d="M0,637h79v-8h40v-18h39v-20h40v-30h39v-6h40v-6h39v-2h40v24h39v-33h40v1h39v7h40v2h39v-6h40v2h39v5h40v-11h39v-3h40v21h39v-2h40v-16h39v14h40v-10h39L948,635H0Z" style="stroke-linejoin: miter; stroke: black; stroke-width: 1; fill: #d0f0c1;"></path>
    </g>
    <g>
     <path d="M40,381h40M60,379v4M79,327h40M99,327v1M119,306h40M139,306v1M158,299h40M178,299v1M198,298h40M218,297v1M237,297h40M257,296v2M277,300h40M297,300v1M316,302h40M336,301v1M356,304h40M376,303v2M395,305h40M415,304v1M435,306h40M455,306v1M474,310h40M494,309v1M514,311h40M534,310v1M553,315h40M573,314v2M593,320h40M613,319v2M632,324h40M652,323v1M672,329h40M692,328v2M711,336h40M731,335v2M751,341h40M771,340v2M790,346h40M810,345v2M830,351h40M850,350v3M869,359h40M889,357v3M909,363h40M929,362v2" style="stroke: black; stroke-width: 2;"></path>
     <path d="M55,381a5,5,0,1,0,10,0a5,5,0,1,0,-10,0zM94,327a5,5,0,1,0,10,0a5,5,0,1,0,-10,0zM134,306a5,5,0,1,0,10,0a5,5,0,1,0,-10,0zM173,299a5,5,0,1,0,10,0a5,5,0,1,0,-10,0zM213,298a5,5,0,1,0,10,0a5,5,0,1,0,-10,0zM252,297a5,5,0,1,0,10,0a5,5,0,1,0,-10,0zM292,300a5,5,0,1,0,10,0a5,5,0,1,0,-10,0zM331,302a5,5,0,1,0,10,0a5,5,0,1,0,-10,0zM371,304a5,5,0,1,0,10,0a5,5,0,1,0,-10,0zM410,305a5,5,0,1,0,10,0a5,5,0,1,0,-10,0zM450,306a5,5,0,1,0,10,0a5,5,0,1,0,-10,0zM489,310a5,5,0,1,0,10,0a5,5,0,1,0,-10,0zM529,311a5,5,0,1,0,10,0a5,5,0,1,0,-10,0zM568,315a5,5,0,1,0,10,0a5,5,0,1,0,-10,0zM608,320a5,5,0,1,0,10,0a5,5,0,1,0,-10,0zM647,324a5,5,0,1,0,10,0a5,5,0,1,0,-10,0zM687,329a5,5,0,1,0,10,0a5,5,0,1,0,-10,0zM726,336a5,5,0,1,0,10,0a5,5,0,1,0,-10,0zM766,341a5,5,0,1,0,10,0a5,5,0,1,0,-10,0zM805,346a5,5,0,1,0,10,0a5,5,0,1,0,-10,0zM845,351a5,5,0,1,0,10,0a5,5,0,1,0,-10,0zM884,359a5,5,0,1,0,10,0a5,5,0,1,0,-10,0zM924,363a5,5,0,1,0,10,0a5,5,0,1,0,-10,0z" style="stroke: black; fill: black;"></path>
    </g>
   </svg>
   <g>
    <g transform="translate(0,632)">
     <path d="M0,0h948M0,-24v24m40,-12v12m39,-12v12m40,-12v12m39,-24v24m40,-12v12m39,-12v12m40,-12v12m39,-24v24m40,-12v12m39,-12v12m40,-12v12m39,-24v24m40,-12v12m39,-12v12m40,-12v12m39,-24v24m40,-12v12m39,-12v12m40,-12v12m39,-24v24m40,-12v12m39,-12v12m40,-12v12m39,-24v24" style="stroke: black; stroke-width: 1;"></path>
     <g font-family="Arial" font-size="32" space="preserve" fill="black" text-anchor="middle">
      <text dy=".8em" transform="translate(0,6)">
       60
      </text>
      <text dy=".8em" transform="translate(158,6)">
       80
      </text>
      <text dy=".8em" transform="translate(316,6)">
       100
      </text>
      <text dy=".8em" transform="translate(474,6)">
       120
      </text>
      <text dy=".8em" transform="translate(632,6)">
       140
      </text>
      <text dy=".8em" transform="translate(790,6)">
       160
      </text>
      <text dy=".8em" transform="translate(948,6)">
       180
      </text>
     </g>
     <g font-family="Arial" font-size="36" space="preserve" transform="translate(948,75)">
      <g transform="translate(-196,13)">
       <text fill="black" font-size="36">
        m
       </text>
       <text fill="black" font-size="22" transform="translate(31,-17)">
        W→ lν
       </text>
       <text fill="black" font-size="22" transform="translate(31,7)">
        T
       </text>
       <text fill="black" font-size="36" x="95">
        [GeV]
       </text>
      </g>
     </g>
    </g>
    <g>
     <path d="M0,0v632M18,622h-18m18,-10h-18m18,-8h-18m18,-6h-18m18,-5h-18m18,-5h-18m18,-4h-18m36,-3h-36m18,-24h-18m18,-14h-18m18,-10h-18m18,-7h-18m18,-7h-18m18,-5h-18m18,-4h-18m18,-4h-18m36,-4h-36m18,-24h-18m18,-14h-18m18,-9h-18m18,-8h-18m18,-6h-18m18,-6h-18m18,-4h-18m18,-4h-18m36,-4h-36m18,-23h-18m18,-14h-18m18,-10h-18m18,-8h-18m18,-6h-18m18,-5h-18m18,-5h-18m18,-4h-18m36,-3h-36m18,-24h-18m18,-14h-18m18,-10h-18m18,-7h-18m18,-7h-18m18,-5h-18m18,-4h-18m18,-4h-18m36,-4h-36m18,-24h-18m18,-14h-18m18,-9h-18m18,-8h-18m18,-6h-18m18,-6h-18m18,-4h-18m18,-4h-18m36,-4h-36m18,-23h-18m18,-14h-18m18,-10h-18m18,-8h-18m18,-6h-18m18,-5h-18m18,-5h-18m18,-4h-18m36,-3h-36m18,-24h-18m18,-14h-18m18,-10h-18m18,-7h-18m18,-7h-18m18,-5h-18m18,-4h-18m18,-4h-18m36,-4h-36m18,-24h-18" style="stroke: black; stroke-width: 1;"></path>
     <g font-family="Arial" font-size="32" space="preserve">
      <g transform="translate(-49,594)">
       <text fill="black" font-size="32">
        10
       </text>
       <text fill="black" font-size="19" transform="translate(34,-15)">
        0
       </text>
      </g>
      <g transform="translate(-48,515)">
       <text fill="black" font-size="32">
        10
       </text>
       <text fill="black" font-size="19" transform="translate(34,-15)">
        1
       </text>
      </g>
      <g transform="translate(-49,436)">
       <text fill="black" font-size="32">
        10
       </text>
       <text fill="black" font-size="19" transform="translate(34,-15)">
        2
       </text>
      </g>
      <g transform="translate(-49,358)">
       <text fill="black" font-size="32">
        10
       </text>
       <text fill="black" font-size="19" transform="translate(34,-15)">
        3
       </text>
      </g>
      <g transform="translate(-49,279)">
       <text fill="black" font-size="32">
        10
       </text>
       <text fill="black" font-size="19" transform="translate(34,-15)">
        4
       </text>
      </g>
      <g transform="translate(-49,200)">
       <text fill="black" font-size="32">
        10
       </text>
       <text fill="black" font-size="19" transform="translate(34,-15)">
        5
       </text>
      </g>
      <g transform="translate(-49,122)">
       <text fill="black" font-size="32">
        10
       </text>
       <text fill="black" font-size="19" transform="translate(34,-15)">
        6
       </text>
      </g>
      <g transform="translate(-49,43)">
       <text fill="black" font-size="32">
        10
       </text>
       <text fill="black" font-size="19" transform="translate(34,-15)">
        7
       </text>
      </g>
     </g>
     <g font-family="Arial" font-size="36" space="preserve" transform="translate(-121,0)">
      <text fill="black" text-anchor="end" dy=".4em" transform=" rotate(270)">
       Events
      </text>
     </g>
    </g>
   </g>
  </g>
  <g transform="translate(720,64)" font-family="Arial" font-size="28" space="preserve">
   <path d="M12,23H84" style="stroke: black; stroke-width: 2;"></path>
   <path d="M48,9V37" style="stroke: black; stroke-width: 2;"></path>
   <path d="M43,23a5,5,0,1,0,10,0a5,5,0,1,0,-10,0z" style="stroke: black; fill: black;"></path>
   <text fill="black" text-anchor="end" dy=".4em" transform="translate(372,23)">
    Data
   </text>
   <path d="M12,43v27h72v-27z" style="fill: #de5a6a; stroke: black; stroke-width: 1;"></path>
   <text fill="black" text-anchor="end" dy=".4em" transform="translate(372,57)">
    W+jets
   </text>
   <path d="M12,77v27h72v-27z" style="fill: #f8ce68; stroke: black; stroke-width: 1;"></path>
   <text fill="black" text-anchor="end" dy=".4em" transform="translate(372,91)">
    Z+jets
   </text>
   <path d="M12,111v27h72v-27z" style="fill: #9b98cc; stroke: black; stroke-width: 1;"></path>
   <g transform="translate(354,135) scale(0.914)">
    <text fill="black" font-size="31">
     t
    </text>
    <g transform="translate(10)">
     <text fill="black" font-size="31" text-decoration="overline">
      t
     </text>
    </g>
   </g>
   <path d="M12,145v27h72v-27z" style="fill: #c38a91; stroke: black; stroke-width: 1;"></path>
   <text fill="black" text-anchor="end" dy=".4em" transform="translate(372,159)">
    Diboson
   </text>
   <path d="M12,179v27h72v-27z" style="fill: #d0f0c1; stroke: black; stroke-width: 1;"></path>
   <text fill="black" text-anchor="end" dy=".4em" transform="translate(372,193)">
    Single top
   </text>
  </g>
  <g font-family="Arial" font-size="32" space="preserve" font-weight="bold" font-style="oblique">
   <text fill="black" text-anchor="start" transform="translate(252,112)">
    ATLAS
   </text>
  </g>
  <g font-family="Arial" font-size="32" space="preserve">
   <text fill="black" text-anchor="start" transform="translate(444,112)">
    Open Data
   </text>
  </g>
  <g font-family="Arial" font-size="29" space="preserve">
   <g transform="translate(252,160)">
    <g>
     <path style="stroke: black; stroke-width: 2; fill: none;" d="M0,-10h3l3,11l3,-29h21v3"></path>
     <text fill="black" font-size="29" transform="translate(14)">
      s
     </text>
    </g>
    <text fill="black" font-size="29" x="35">
     = 13 TeV, 0.01 fb
    </text>
    <text fill="black" font-size="17" transform="translate(261,-14)">
     -1
    </text>
   </g>
  </g>
 </g>
</svg>

<svg xmlns="http://www.w3.org/2000/svg" viewBox="0 0 1200 800" preserveAspectRatio="none" width="1200" height="800">
 <path d="M0,0H1200V800H0Z" style="fill: white;"></path>
 <g>
  <g transform="translate(192,40)">
   <path d="M0,0H948V632H0Z" style="fill: white; stroke: black; stroke-width: 1;"></path>
   <svg x="0" y="0" overflow="hidden" width="948" height="632" viewBox="0 0 948 632">
    <g>
     <path d="M0,637h40v-267h39v-48h40v-19h39v-6h40v-6h39v7h40v5h39v-5h40v3h39v4h40v5h39v-3h40v5h39v5h40v2h39v8h40v8h39v6h40v1h39v4h40v9h39v5h79L948,635H0Z" style="stroke-linejoin: miter; stroke: black; stroke-width: 1; fill: #de5a6a;"></path>
    </g>
    <g>
     <path d="M0,637h40v-114h39v-58h40v-18h39v-13h40v-6h39v-7h40v-5h39v-3h79v2h40v-3h39v-3h40v2h39v-1h79v5h40v1h39v4h40v6h39v3h40v9h39v1h40v-3h39L948,635H0Z" style="stroke-linejoin: miter; stroke: black; stroke-width: 1; fill: #f8ce68;"></path>
    </g>
    <g>
     <path d="M0,637h40v-66h39v-46h40v-20h39v-18h40v-7h39v-10h40v-8h39v-3h40v-2h39v-2h40v-2h79v3h39v-1h40v-5h39v5h40v-1h39v1h40v3h39v3h40v1h79v2h39L948,635H0Z" style="stroke-linejoin: miter; stroke: black; stroke-width: 1; fill: #9b98cc;"></path>
    </g>
    <g>
     <path d="M0,637h40v-29h39v-49h40v-3h39v-16h40v-12h39v-10h40v-9h39v1h40v5h39v-6h40v-4h39v3h40v5h39v1h40v-1h39v2h40v-4h39v1h40v6h39v3h40v-3h39v3h79L948,635H0Z" style="stroke-linejoin: miter; stroke: black; stroke-width: 1; fill: #c38a91;"></path>
    </g>
    <g>
     <path d="M0,637h79v-8h40v-18h39v-20h40v-30h39v-6h40v-6h39v-2h40v24h39v-33h40v1h39v7h40v2h39v-6h40v2h39v5h40v-11h39v-3h40v21h39v-2h40v-16h39v14h40v-10h39L948,635H0Z" style="stroke-linejoin: miter; stroke: black; stroke-width: 1; fill: #d0f0c1;"></path>
    </g>
    <g>
     <path d="M40,381h40M60,379v4M79,327h40M99,327v1M119,306h40M139,306v1M158,299h40M178,299v1M198,298h40M218,297v1M237,297h40M257,296v2M277,300h40M297,300v1M316,302h40M336,301v1M356,304h40M376,303v2M395,305h40M415,304v1M435,306h40M455,306v1M474,310h40M494,309v1M514,311h40M534,310v1M553,315h40M573,314v2M593,320h40M613,319v2M632,324h40M652,323v1M672,329h40M692,328v2M711,336h40M731,335v2M751,341h40M771,340v2M790,346h40M810,345v2M830,351h40M850,350v3M869,359h40M889,357v3M909,363h40M929,362v2" style="stroke: black; stroke-width: 2;"></path>
     <path d="M55,381a5,5,0,1,0,10,0a5,5,0,1,0,-10,0zM94,327a5,5,0,1,0,10,0a5,5,0,1,0,-10,0zM134,306a5,5,0,1,0,10,0a5,5,0,1,0,-10,0zM173,299a5,5,0,1,0,10,0a5,5,0,1,0,-10,0zM213,298a5,5,0,1,0,10,0a5,5,0,1,0,-10,0zM252,297a5,5,0,1,0,10,0a5,5,0,1,0,-10,0zM292,300a5,5,0,1,0,10,0a5,5,0,1,0,-10,0zM331,302a5,5,0,1,0,10,0a5,5,0,1,0,-10,0zM371,304a5,5,0,1,0,10,0a5,5,0,1,0,-10,0zM410,305a5,5,0,1,0,10,0a5,5,0,1,0,-10,0zM450,306a5,5,0,1,0,10,0a5,5,0,1,0,-10,0zM489,310a5,5,0,1,0,10,0a5,5,0,1,0,-10,0zM529,311a5,5,0,1,0,10,0a5,5,0,1,0,-10,0zM568,315a5,5,0,1,0,10,0a5,5,0,1,0,-10,0zM608,320a5,5,0,1,0,10,0a5,5,0,1,0,-10,0zM647,324a5,5,0,1,0,10,0a5,5,0,1,0,-10,0zM687,329a5,5,0,1,0,10,0a5,5,0,1,0,-10,0zM726,336a5,5,0,1,0,10,0a5,5,0,1,0,-10,0zM766,341a5,5,0,1,0,10,0a5,5,0,1,0,-10,0zM805,346a5,5,0,1,0,10,0a5,5,0,1,0,-10,0zM845,351a5,5,0,1,0,10,0a5,5,0,1,0,-10,0zM884,359a5,5,0,1,0,10,0a5,5,0,1,0,-10,0zM924,363a5,5,0,1,0,10,0a5,5,0,1,0,-10,0z" style="stroke: black; fill: black;"></path>
    </g>
   </svg>
   <g>
    <g transform="translate(0,632)">
     <path d="M0,0h948M0,-24V0M40,-12V0M79,-12V0M119,-12V0M158,-24V0M198,-12V0M237,-12V0M277,-12V0M316,-24V0M356,-12V0M395,-12V0M435,-12V0M474,-24V0M514,-12V0M553,-12V0M593,-12V0M632,-24V0M672,-12V0M711,-12V0M751,-12V0M790,-24V0M830,-12V0M869,-12V0M909,-12V0M948,-24V0" style="stroke: black; stroke-width: 1;"></path>
     <g font-family="Arial" font-size="32" space="preserve" fill="black" text-anchor="middle">
      <text dy=".8em" transform="translate(0,6)">
       60
      </text>
      <text dy=".8em" transform="translate(158,6)">
       80
      </text>
      <text dy=".8em" transform="translate(316,6)">
       100
      </text>
      <text dy=".8em" transform="translate(474,6)">
       120
      </text>
      <text dy=".8em" transform="translate(632,6)">
       140
      </text>
      <text dy=".8em" transform="translate(790,6)">
       160
      </text>
      <text dy=".8em" transform="translate(948,6)">
       180
      </text>
     </g>
     <g font-family="Arial" font-size="36" space="preserve" transform="translate(948,75)">
      <g transform="translate(-196,13)">
       <text fill="black" font-size="36">
        m
       </text>
       <text fill="black" font-size="22" transform="translate(31,-17)">
        W→ lν
       </text>
       <text fill="black" font-size="22" transform="translate(31,7)">
        T
       </text>
       <text fill="black" font-size="36" x="95">
        [GeV]
       </text>
      </g>
     </g>
    </g>
    <g>
     <path d="M0,0v632M18,622H0M18,612H0M18,604H0M18,598H0M18,593H0M18,588H0M18,584H0M36,581H0M18,557H0M18,543H0M18,533H0M18,526H0M18,519H0M18,514H0M18,510H0M18,506H0M36,502H0M18,478H0M18,464H0M18,455H0M18,447H0M18,441H0M18,435H0M18,431H0M18,427H0M36,423H0M18,400H0M18,386H0M18,376H0M18,368H0M18,362H0M18,357H0M18,352H0M18,348H0M36,345H0M18,321H0M18,307H0M18,297H0M18,290H0M18,283H0M18,278H0M18,274H0M18,270H0M36,266H0M18,242H0M18,228H0M18,219H0M18,211H0M18,205H0M18,199H0M18,195H0M18,191H0M36,187H0M18,164H0M18,150H0M18,140H0M18,132H0M18,126H0M18,121H0M18,116H0M18,112H0M36,109H0M18,85H0M18,71H0M18,61H0M18,54H0M18,47H0M18,42H0M18,38H0M18,34H0M36,30H0M18,6H0" style="stroke: black; stroke-width: 1;"></path>
     <g font-family="Arial" font-size="32" space="preserve">
      <g transform="translate(-49,594)">
       <text fill="black" font-size="32">
        10
       </text>
       <text fill="black" font-size="19" transform="translate(34,-15)">
        0
       </text>
      </g>
      <g transform="translate(-48,515)">
       <text fill="black" font-size="32">
        10
       </text>
       <text fill="black" font-size="19" transform="translate(34,-15)">
        1
       </text>
      </g>
      <g transform="translate(-49,436)">
       <text fill="black" font-size="32">
        10
       </text>
       <text fill="black" font-size="19" transform="translate(34,-15)">
        2
       </text>
      </g>
      <g transform="translate(-49,358)">
       <text fill="black" font-size="32">
        10
       </text>
       <text fill="black" font-size="19" transform="translate(34,-15)">
        3
       </text>
      </g>
      <g transform="translate(-49,279)">
       <text fill="black" font-size="32">
        10
       </text>
       <text fill="black" font-size="19" transform="translate(34,-15)">
        4
       </text>
      </g>
      <g transform="translate(-49,200)">
       <text fill="black" font-size="32">
        10
       </text>
       <text fill="black" font-size="19" transform="translate(34,-15)">
        5
       </text>
      </g>
      <g transform="translate(-49,122)">
       <text fill="black" font-size="32">
        10
       </text>
       <text fill="black" font-size="19" transform="translate(34,-15)">
        6
       </text>
      </g>
      <g transform="translate(-49,43)">
       <text fill="black" font-size="32">
        10
       </text>
       <text fill="black" font-size="19" transform="translate(34,-15)">
        7
       </text>
      </g>
     </g>
     <g font-family="Arial" font-size="36" space="preserve" transform="translate(-121,0)">
      <text fill="black" text-anchor="end" dy=".4em" transform=" rotate(270)">
       Events
      </text>
     </g>
    </g>
   </g>
  </g>
  <g transform="translate(720,64)" font-family="Arial" font-size="28" space="preserve">
   <path d="M12,23H84" style="stroke: black; stroke-width: 2;"></path>
   <path d="M48,9V37" style="stroke: black; stroke-width: 2;"></path>
   <path d="M43,23a5,5,0,1,0,10,0a5,5,0,1,0,-10,0z" style="stroke: black; fill: black;"></path>
   <text fill="black" text-anchor="end" dy=".4em" transform="translate(372,23)">
    Data
   </text>
   <path d="M12,43v27h72v-27z" style="fill: #de5a6a; stroke: black; stroke-width: 1;"></path>
   <text fill="black" text-anchor="end" dy=".4em" transform="translate(372,57)">
    W+jets
   </text>
   <path d="M12,77v27h72v-27z" style="fill: #f8ce68; stroke: black; stroke-width: 1;"></path>
   <text fill="black" text-anchor="end" dy=".4em" transform="translate(372,91)">
    Z+jets
   </text>
   <path d="M12,111v27h72v-27z" style="fill: #9b98cc; stroke: black; stroke-width: 1;"></path>
   <g transform="translate(354,135) scale(0.914)">
    <text fill="black" font-size="31">
     t
    </text>
    <g transform="translate(10)">
     <text fill="black" font-size="31" text-decoration="overline">
      t
     </text>
    </g>
   </g>
   <path d="M12,145v27h72v-27z" style="fill: #c38a91; stroke: black; stroke-width: 1;"></path>
   <text fill="black" text-anchor="end" dy=".4em" transform="translate(372,159)">
    Diboson
   </text>
   <path d="M12,179v27h72v-27z" style="fill: #d0f0c1; stroke: black; stroke-width: 1;"></path>
   <text fill="black" text-anchor="end" dy=".4em" transform="translate(372,193)">
    Single top
   </text>
  </g>
  <g font-family="Arial" font-size="32" space="preserve" font-weight="bold" font-style="oblique">
   <text fill="black" text-anchor="start" transform="translate(252,112)">
    ATLAS
   </text>
  </g>
  <g font-family="Arial" font-size="32" space="preserve">
   <text fill="black" text-anchor="start" transform="translate(444,112)">
    Open Data
   </text>
  </g>
  <g font-family="Arial" font-size="29" space="preserve">
   <g transform="translate(252,160)">
    <g>
     <path style="stroke: black; stroke-width: 2; fill: none;" d="M0,-10h3l3,11l3,-29h21v3"></path>
     <text fill="black" font-size="29" transform="translate(14)">
      s
     </text>
    </g>
    <text fill="black" font-size="29" x="35">
     = 13 TeV, 0.01 fb
    </text>
    <text fill="black" font-size="17" transform="translate(261,-14)">
     -1
    </text>
   </g>
  </g>
 </g>
</svg>
